ui/StatusQ/src/assets/img/icons/tiny/tick-up.svg

<svg fill="none" height="5" viewBox="0 0 8 5" width="8" xmlns="http://www.w3.org/2000/svg"><path clip-rule="evenodd" d="m7.53033 4.28033c-.29289.29289-.76777.29289-1.06066 0l-2.11612-2.11612c-.19526-.19526-.51184-.19526-.7071 0l-2.11612 2.11612c-.29289.29289-.767767.29289-1.06066 0s-.292893-.76777 0-1.06066l3-3c.29289-.2928928.76777-.2928928 1.06066 0l3 3c.29289.29289.29289.76777 0 1.06066z" fill="#000" fill-rule="evenodd"/></svg>

<svg width="8" height="5" viewBox="0 0 8 5" fill="none" xmlns="http://www.w3.org/2000/svg">
<path fill-rule="evenodd" clip-rule="evenodd" d="M7.53033 4.28033C7.23744 4.57322 6.76256 4.57322 6.46967 4.28033L4.35355 2.16421C4.15829 1.96895 3.84171 1.96895 3.64645 2.16421L1.53033 4.28033C1.23744 4.57322 0.762563 4.57322 0.46967 4.28033C0.176777 3.98744 0.176777 3.51256 0.46967 3.21967L3.46967 0.21967C3.76256 -0.0732228 4.23744 -0.0732228 4.53033 0.21967L7.53033 3.21967C7.82322 3.51256 7.82322 3.98744 7.53033 4.28033Z" fill="#000000"/>
</svg>
